assets/images/svg/line1.svg

<svg width="311" height="6" viewBox="0 0 311 6" fill="none" xmlns="http://www.w3.org/2000/svg">
<path d="M0.333333 3C0.333333 4.47276 1.52724 5.66667 3 5.66667C4.47276 5.66667 5.66667 4.47276 5.66667 3C5.66667 1.52724 4.47276 0.333333 3 0.333333C1.52724 0.333333 0.333333 1.52724 0.333333 3ZM305.333 2.99997C305.333 4.47273 306.527 5.66664 308 5.66664C309.473 5.66664 310.667 4.47273 310.667 2.99997C310.667 1.52721 309.473 0.333306 308 0.333307C306.527 0.333307 305.333 1.52721 305.333 2.99997ZM3 3.5L4.4951 3.5L4.4951 2.5L3 2.5L3 3.5ZM7.48529 3.5L10.4755 3.5L10.4755 2.5L7.48529 2.5L7.48529 3.5ZM13.4657 3.5L16.4559 3.5L16.4559 2.5L13.4657 2.5L13.4657 3.5ZM19.4461 3.5L22.4363 3.5L22.4363 2.5L19.4461 2.5L19.4461 3.5ZM25.4265 3.5L28.4167 3.5L28.4167 2.5L25.4265 2.5L25.4265 3.5ZM31.4069 3.5L34.3971 3.5L34.3971 2.5L31.4069 2.5L31.4069 3.5ZM37.3873 3.5L40.3774 3.5L40.3774 2.5L37.3873 2.5L37.3873 3.5ZM43.3676 3.5L46.3578 3.5L46.3578 2.5L43.3676 2.5L43.3676 3.5ZM49.348 3.5L52.3382 3.5L52.3382 2.5L49.348 2.5L49.348 3.5ZM55.3284 3.5L58.3186 3.5L58.3186 2.5L55.3284 2.5L55.3284 3.5ZM61.3088 3.49999L64.299 3.49999L64.299 2.49999L61.3088 2.49999L61.3088 3.49999ZM67.2892 3.49999L70.2794 3.49999L70.2794 2.49999L67.2892 2.49999L67.2892 3.49999ZM73.2696 3.49999L76.2598 3.49999L76.2598 2.49999L73.2696 2.49999L73.2696 3.49999ZM79.25 3.49999L82.2402 3.49999L82.2402 2.49999L79.25 2.49999L79.25 3.49999ZM85.2304 3.49999L88.2206 3.49999L88.2206 2.49999L85.2304 2.49999L85.2304 3.49999ZM91.2108 3.49999L94.201 3.49999L94.201 2.49999L91.2108 2.49999L91.2108 3.49999ZM97.1912 3.49999L100.181 3.49999L100.181 2.49999L97.1912 2.49999L97.1912 3.49999ZM103.172 3.49999L106.162 3.49999L106.162 2.49999L103.172 2.49999L103.172 3.49999ZM109.152 3.49999L112.142 3.49999L112.142 2.49999L109.152 2.49999L109.152 3.49999ZM115.132 3.49999L118.123 3.49999L118.123 2.49999L115.132 2.49999L115.132 3.49999ZM121.113 3.49999L124.103 3.49999L124.103 2.49999L121.113 2.49999L121.113 3.49999ZM127.093 3.49999L130.083 3.49999L130.083 2.49999L127.093 2.49999L127.093 3.49999ZM133.074 3.49999L136.064 3.49999L136.064 2.49999L133.074 2.49999L133.074 3.49999ZM139.054 3.49999L142.044 3.49999L142.044 2.49999L139.054 2.49999L139.054 3.49999ZM145.034 3.49999L148.024 3.49999L148.024 2.49999L145.034 2.49999L145.034 3.49999ZM151.015 3.49999L154.005 3.49999L154.005 2.49999L151.015 2.49999L151.015 3.49999ZM156.995 3.49999L159.985 3.49999L159.985 2.49999L156.995 2.49999L156.995 3.49999ZM162.975 3.49999L165.966 3.49999L165.966 2.49999L162.975 2.49999L162.975 3.49999ZM168.956 3.49999L171.946 3.49999L171.946 2.49999L168.956 2.49999L168.956 3.49999ZM174.936 3.49998L177.926 3.49998L177.926 2.49998L174.936 2.49998L174.936 3.49998ZM180.917 3.49998L183.907 3.49998L183.907 2.49998L180.917 2.49998L180.917 3.49998ZM186.897 3.49998L189.887 3.49998L189.887 2.49998L186.897 2.49998L186.897 3.49998ZM192.877 3.49998L195.867 3.49998L195.867 2.49998L192.877 2.49998L192.877 3.49998ZM198.858 3.49998L201.848 3.49998L201.848 2.49998L198.858 2.49998L198.858 3.49998ZM204.838 3.49998L207.828 3.49998L207.828 2.49998L204.838 2.49998L204.838 3.49998ZM210.818 3.49998L213.809 3.49998L213.809 2.49998L210.818 2.49998L210.818 3.49998ZM216.799 3.49998L219.789 3.49998L219.789 2.49998L216.799 2.49998L216.799 3.49998ZM222.779 3.49998L225.769 3.49998L225.769 2.49998L222.779 2.49998L222.779 3.49998ZM228.76 3.49998L231.75 3.49998L231.75 2.49998L228.76 2.49998L228.76 3.49998ZM234.74 3.49998L237.73 3.49998L237.73 2.49998L234.74 2.49998L234.74 3.49998ZM240.72 3.49998L243.711 3.49998L243.711 2.49998L240.72 2.49998L240.72 3.49998ZM246.701 3.49998L249.691 3.49998L249.691 2.49998L246.701 2.49998L246.701 3.49998ZM252.681 3.49998L255.671 3.49998L255.671 2.49998L252.681 2.49998L252.681 3.49998ZM258.661 3.49998L261.652 3.49998L261.652 2.49998L258.661 2.49998L258.661 3.49998ZM264.642 3.49998L267.632 3.49998L267.632 2.49998L264.642 2.49998L264.642 3.49998ZM270.622 3.49998L273.612 3.49998L273.612 2.49998L270.622 2.49998L270.622 3.49998ZM276.603 3.49998L279.593 3.49998L279.593 2.49998L276.603 2.49998L276.603 3.49998ZM282.583 3.49998L285.573 3.49998L285.573 2.49998L282.583 2.49998L282.583 3.49998ZM288.563 3.49998L291.554 3.49997L291.554 2.49997L288.563 2.49998L288.563 3.49998ZM294.544 3.49997L297.534 3.49997L297.534 2.49997L294.544 2.49997L294.544 3.49997ZM300.524 3.49997L303.514 3.49997L303.514 2.49997L300.524 2.49997L300.524 3.49997ZM306.505 3.49997L308 3.49997L308 2.49997L306.505 2.49997L306.505 3.49997Z" fill="#E5E8EA"/>
</svg>

<svg xmlns="http://www.w3.org/2000/svg" width="311" height="6" fill="none" viewBox="0 0 311 6"><path fill="#e5e8ea" d="M.333 3a2.667 2.667 0 1 0 5.334 0A2.667 2.667 0 0 0 .333 3m305 0a2.667 2.667 0 1 0 5.334 0 2.667 2.667 0 0 0-5.334 0M3 3.5h1.495v-1H3zm4.485 0h2.99v-1h-2.99zm5.98 0h2.99v-1h-2.99zm5.981 0h2.99v-1h-2.99zm5.98 0h2.99v-1h-2.99zm5.98 0h2.991v-1h-2.99zm5.981 0h2.99v-1h-2.99zm5.98 0h2.99v-1h-2.99zm5.981 0h2.99v-1h-2.99zm5.98 0h2.99v-1h-2.99zm5.98 0H64.3v-1h-2.99zm5.981 0h2.99v-1h-2.99zm5.98 0h2.99v-1h-2.99zm5.981 0h2.99v-1h-2.99zm5.98 0h2.99v-1h-2.99zm5.98 0h2.991v-1h-2.99zm5.981 0h2.99v-1h-2.99zm5.981 0h2.99v-1h-2.99zm5.98 0h2.99v-1h-2.99zm5.98 0h2.991v-1h-2.991zm5.981 0h2.99v-1h-2.99zm5.98 0h2.99v-1h-2.99zm5.981 0h2.99v-1h-2.99zm5.98 0h2.99v-1h-2.99zm5.98 0h2.99v-1h-2.99zm5.981 0h2.99v-1h-2.99zm5.98 0h2.99v-1h-2.99zm5.98 0h2.991v-1h-2.991zm5.981 0h2.99v-1h-2.99zm5.98 0h2.99v-1h-2.99zm5.981 0h2.99v-1h-2.99zm5.98 0h2.99v-1h-2.99zm5.98 0h2.99v-1h-2.99zm5.981 0h2.99v-1h-2.99zm5.98 0h2.99v-1h-2.99zm5.98 0h2.991v-1h-2.991zm5.981 0h2.99v-1h-2.99zm5.98 0h2.99v-1h-2.99zm5.981 0h2.99v-1h-2.99zm5.98 0h2.99v-1h-2.99zm5.98 0h2.991v-1h-2.991zm5.981 0h2.99v-1h-2.99zm5.98 0h2.99v-1h-2.99zm5.98 0h2.991v-1h-2.991zm5.981 0h2.99v-1h-2.99zm5.98 0h2.99v-1h-2.99zm5.981 0h2.99v-1h-2.99zm5.98 0h2.99v-1h-2.99zm5.98 0h2.991v-1h-2.991zm5.981 0h2.99v-1h-2.99zm5.98 0h2.99v-1h-2.99zm5.981 0H308v-1h-1.495z"/></svg>
